X: 81
T:The Bittern of the Beacons
M:6/8
L:1/8
Q:130
S:Michael Raven (Hynde Horn)
R:Jig
A:Wales
Z:brian_martin12345@yahoo.com
K:G
GGGd2d|B3G3|A2A ddd|B3G3|d2B cde|!
ddBd2d|BBGB3|E3D3|E3D3|AAAd2d|B3G3||
